src/assets/img/sex/male.svg

<?xml version="1.0" encoding="UTF-8" standalone="no"?>
<svg
   height="23.449999"
   width="23.451576"
   version="1.1"
   id="svg963"
   sodipodi:docname="male.svg"
   inkscape:version="1.1 (c4e8f9ed74, 2021-05-24)"
   xmlns:inkscape="http://www.inkscape.org/namespaces/inkscape"
   xmlns:sodipodi="http://sodipodi.sourceforge.net/DTD/sodipodi-0.dtd"
   xmlns:xlink="http://www.w3.org/1999/xlink"
   xmlns="http://www.w3.org/2000/svg"
   xmlns:svg="http://www.w3.org/2000/svg">
  <sodipodi:namedview
     id="namedview965"
     pagecolor="#505050"
     bordercolor="#eeeeee"
     borderopacity="1"
     inkscape:pageshadow="0"
     inkscape:pageopacity="0"
     inkscape:pagecheckerboard="0"
     showgrid="false"
     inkscape:zoom="7.2066216"
     inkscape:cx="84.574997"
     inkscape:cy="18.732772"
     inkscape:current-layer="svg963" />
  <g
     transform="translate(40.001576,12.999999)"
     id="g940">
    <use
       height="23.450001"
       transform="translate(-40,-13)"
       width="23.450001"
       xlink:href="#sprite0"
       id="use936"
       x="0"
       y="0" />
    <use
       height="14.55"
       transform="translate(-35.85,-7.7)"
       width="14.45"
       xlink:href="#shape1"
       id="use938"
       x="0"
       y="0" />
  </g>
  <defs
     id="defs961">
    <g
       id="sprite0"
       transform="translate(11.7,11.75)">
      <use
         height="23.450001"
         transform="translate(-11.7,-11.75)"
         width="23.450001"
         xlink:href="#shape0"
         id="use942"
         x="0"
         y="0" />
    </g>
    <g
       id="shape0"
       transform="translate(11.7,11.75)">
      <path
         d="m -3.35,-10.25 3.4,-0.5 2.2,0.2 q 2.2,0.45 4,1.8 L 7.6,-7.6 q 3.15,3.2 3.15,7.6 0,4.45 -3.15,7.6 V 7.65 Q 4.4,10.7 0.05,10.7 l -2.4,-0.25 q -2.3,-0.5 -4.2,-1.9 l -1,-0.9 L -7.6,7.6 Q -10.75,4.45 -10.7,0.05 V -0.1 q -0.05,-2.95 1.45,-5.35 l 1.65,-2.15 0.7,-0.65 1.85,-1.25 1.7,-0.75 M 1.9,1.85 H 1.85 V 1.9 L 1.9,1.85"
         fill="#ff3399"
         fill-rule="evenodd"
         stroke="none"
         id="path945" />
      <path
         d="m -7.6,7.6 0.05,0.05 1,0.9 q 1.9,1.4 4.2,1.9 m 8.6,-19.2 q -1.8,-1.35 -4,-1.8"
         fill="none"
         stroke="#ff3399"
         stroke-linecap="round"
         stroke-linejoin="round"
         stroke-width="2"
         id="path947" />
      <path
         d="m -2.35,10.45 2.4,0.25 Q 4.4,10.7 7.6,7.65 V 7.6 Q 10.75,4.45 10.75,0 10.75,-4.4 7.6,-7.6 L 6.25,-8.75"
         fill="none"
         stroke="#cc0066"
         stroke-linecap="round"
         stroke-linejoin="round"
         stroke-width="2"
         id="path949" />
      <path
         d="m 2.25,-10.55 -2.2,-0.2 -3.4,0.5 m -1.7,0.75 -1.85,1.25 m -2.35,2.8 q -1.5,2.4 -1.45,5.35 v 0.15 q -0.05,4.4 3.1,7.55"
         fill="none"
         stroke="#ff99cc"
         stroke-linecap="round"
         stroke-linejoin="round"
         stroke-width="2"
         id="path951" />
      <path
         d="m -3.35,-10.25 -1.7,0.75 m -1.85,1.25 -0.7,0.65 -1.65,2.15"
         fill="none"
         stroke="#ffffff"
         stroke-linecap="round"
         stroke-linejoin="round"
         stroke-width="2"
         id="path953" />
    </g>
    <g
       id="shape1"
       transform="translate(35.85,7.7)">
      <path
         d="m -27.7,-6.7 4.95,0.1 -4,4.15 m 4.35,-4.15 v 5.25"
         fill="none"
         stroke="#ffffff"
         stroke-linecap="round"
         stroke-linejoin="round"
         stroke-width="2"
         id="path956" />
      <path
         d="m -27.6,-1.4 q 1.25,1.25 1.25,2.95 0,1.7 -1.25,2.95 -1.25,1.25 -2.95,1.25 -1.75,0 -2.95,-1.25 -1.25,-1.25 -1.25,-2.95 0,-1.7 1.25,-2.95 1.2,-1.25 2.95,-1.25 1.7,0 2.95,1.25 z"
         fill="none"
         stroke="#ffffff"
         stroke-linecap="round"
         stroke-linejoin="round"
         stroke-width="2.25"
         id="path958" />
    </g>
  </defs>
</svg>

<?xml version="1.0" encoding="UTF-8" standalone="no"?>
<svg xmlns:xlink="http://www.w3.org/1999/xlink" height="37.6px" width="169.15px" xmlns="http://www.w3.org/2000/svg">
  <g transform="matrix(1.0, 0.0, 0.0, 1.0, 40.05, 13.0)">
    <use height="23.45" transform="matrix(1.0, 0.0, 0.0, 1.0, -40.0, -13.0)" width="23.45" xlink:href="#sprite0"/>
    <use height="14.55" transform="matrix(1.0, 0.0, 0.0, 1.0, -35.85, -7.7)" width="14.45" xlink:href="#shape1"/>
  </g>
  <defs>
    <g id="sprite0" transform="matrix(1.0, 0.0, 0.0, 1.0, 11.7, 11.75)">
      <use height="23.45" transform="matrix(1.0, 0.0, 0.0, 1.0, -11.7, -11.75)" width="23.45" xlink:href="#shape0"/>
    </g>
    <g id="shape0" transform="matrix(1.0, 0.0, 0.0, 1.0, 11.7, 11.75)">
      <path d="M-3.35 -10.25 L0.05 -10.75 2.25 -10.55 Q4.45 -10.1 6.25 -8.75 L7.6 -7.6 Q10.75 -4.4 10.75 0.0 10.75 4.45 7.6 7.6 L7.6 7.65 Q4.4 10.7 0.05 10.7 L-2.35 10.45 Q-4.65 9.95 -6.55 8.55 L-7.55 7.65 -7.6 7.6 Q-10.75 4.45 -10.7 0.05 L-10.7 -0.1 Q-10.75 -3.05 -9.25 -5.45 L-7.6 -7.6 -6.9 -8.25 -5.05 -9.5 -3.35 -10.25 M1.9 1.85 L1.85 1.85 1.85 1.9 1.9 1.85" fill="#ff3399" fill-rule="evenodd" stroke="none"/>
      <path d="M-7.6 7.6 L-7.55 7.65 -6.55 8.55 Q-4.65 9.95 -2.35 10.45 M6.25 -8.75 Q4.45 -10.1 2.25 -10.55" fill="none" stroke="#ff3399" stroke-linecap="round" stroke-linejoin="round" stroke-width="2.0"/>
      <path d="M-2.35 10.45 L0.05 10.7 Q4.4 10.7 7.6 7.65 L7.6 7.6 Q10.75 4.45 10.75 0.0 10.75 -4.4 7.6 -7.6 L6.25 -8.75" fill="none" stroke="#cc0066" stroke-linecap="round" stroke-linejoin="round" stroke-width="2.0"/>
      <path d="M2.25 -10.55 L0.05 -10.75 -3.35 -10.25 M-5.05 -9.5 L-6.9 -8.25 M-9.25 -5.45 Q-10.75 -3.05 -10.7 -0.1 L-10.7 0.05 Q-10.75 4.45 -7.6 7.6" fill="none" stroke="#ff99cc" stroke-linecap="round" stroke-linejoin="round" stroke-width="2.0"/>
      <path d="M-3.35 -10.25 L-5.05 -9.5 M-6.9 -8.25 L-7.6 -7.6 -9.25 -5.45" fill="none" stroke="#ffffff" stroke-linecap="round" stroke-linejoin="round" stroke-width="2.0"/>
    </g>
    <g id="shape1" transform="matrix(1.0, 0.0, 0.0, 1.0, 35.85, 7.7)">
      <path d="M-27.7 -6.7 L-22.75 -6.6 -26.75 -2.45 M-22.4 -6.6 L-22.4 -1.35" fill="none" stroke="#ffffff" stroke-linecap="round" stroke-linejoin="round" stroke-width="2.0"/>
      <path d="M-27.6 -1.4 Q-26.35 -0.15 -26.35 1.55 -26.35 3.25 -27.6 4.5 -28.85 5.75 -30.55 5.75 -32.3 5.75 -33.5 4.5 -34.75 3.25 -34.75 1.55 -34.75 -0.15 -33.5 -1.4 -32.3 -2.65 -30.55 -2.65 -28.85 -2.65 -27.6 -1.4 Z" fill="none" stroke="#ffffff" stroke-linecap="round" stroke-linejoin="round" stroke-width="2.25"/>
    </g>
  </defs>
</svg>
